X:9
T:La maumariée vengée par son frère
R:Chanson
O:France
B:Le livre des Chansons (Henri Davenson) n°9
Z:<anamnese@caramail.com> -- http://anamnese.fr.st
M:2/4
L:1/8
Q:1/4=110
K:G
G A B c | d2 d d | e f g e | d4 | d d e B | c2 A c |!
 e2 d c | B4 | d d e B | c2 A c | e2 d F | G4 ||
W:"La première année que je me suis mariée,
W:Il m'a fait marcher tout le long d'une année
W:Dessur des épines qu'on venait de planter.

